X: 259
T: Vesperae – Laudate Pueri
C: Johann Valentin Rathgeber
L: 1/16
M: 2/4
N: Derived from pl-sa--279-a-vii-39--002_rathgeber-johann-valentin--vesperae-laudate-pueri.krn
V: 1
V: 2 clef=alto
V: 3 clef=tenor
V: 4 clef=bass
V: 5 clef=treble
V: 6 clef=treble
V: 7 clef=bass
K: C
[V:1] z2 e2 d2 c2 | 
[V:2] z2 G2 G2 G2 | 
[V:3] z2 C2 B,2 C2 | 
[V:4] z2 C2 G,2 E,2 | 
[V:5] z2 ef gggg | 
[V:6] z2 ef gggg | 
[V:7] z2 C2G,2E,2 | 
[V:1] c2 c c f2 e2 | 
[V:2] A2 G G D2 G2 | 
[V:3] C2 C !breath!C B,2 C2 | 
[V:4] F,2 E, E, D,2 C,2 | 
[V:5] cccc ffee | 
[V:6] cccc ffee | 
[V:7] F,2E,2D,2C,2 | 
[V:1] d4z4 | 
[V:2] G2 z2z4 | 
[V:3] B,4z4 | 
[V:4] G,4z2 C2 | 
[V:5] dGGG G2ef | 
[V:6] dGGG G2ef | 
[V:7] G,2G,2 z2 C2 | 
[V:1] z2 c2 c2 c2 | 
[V:2] z2 G2 A2 G2 | 
[V:3] z2 C2 C2 C2 | 
[V:4] G,2 !breath!E, E, F,2 E,2 | 
[V:5] gggg cccc | 
[V:6] gggg cccc | 
[V:7] G,2C,2F,2E,2 | 
[V:1] f2 e2 d2 d2 | 
[V:2] D2 G2 G2 G2 | 
[V:3] B,2 C2 B,2 B,2 | 
[V:4] D,2 C,2 G,2 G,,2 | 
[V:5] fgef dggg | 
[V:6] fgef dggg | 
[V:7] D,2C,2 G,2G,,2 | 
[V:1] c4z4 | 
[V:2] !breath!G2 G2 G2 G2 | 
[V:3] C4z4 | 
[V:4] C,4z4 | 
[V:5] eeee dggg | 
[V:6] eeee dggg | 
[V:7] C,4z2 B,,2 | 
[V:1] z4z2 e2 | 
[V:2] E2 E !breath!E E2 E2 | 
[V:3] z8 | 
[V:4] z32 | 
[V:5] ceee Beee | 
[V:6] ceee Beee | 
[V:7] A,,4z2 G,,2 | 
[V:1] A2 A2 A2 A2 | 
[V:2] C2 C2 A2 A2 | 
[V:3] z2 C2 C2 C2 | 
[V:4]  | 
[V:5] Aaag fedc | 
[V:6] Aaaa fedc | 
[V:7] F,,4z2 F,2 | 
[V:1] d2 !breath!d2 d2 d2 | 
[V:2] D2 D2 D2 D D | 
[V:3] B,2 B,2 B,2 B,2 | 
[V:4]  | 
[V:5] BdBd GdBd | 
[V:6] BdBd GdBd | 
[V:7] G,2 z2 G,2 z2 | 
[V:1] d2 d2 d2 G2 | 
[V:2] B,2 G, G,z4 | 
[V:3] B,2 B,2 B,2 B,2 | 
[V:4]  | 
[V:5] GdBd GdBd | 
[V:6] GdBd GdBd | 
[V:7] G,2 z2 G,2 z2 | 
[V:1] G2 G2 c2 c2 | 
[V:2] z16 | 
[V:3] z2 C2 C2 E E | 
[V:4] z16 | 
[V:5] G4z ggg | 
[V:6] G4z ggg | 
[V:7] G,CCC A,E,E,E, | 
[V:1] c2 c !breath!cB4 | 
[V:2]  | 
[V:3] D2 D2 D2 D2 | 
[V:4]  | 
[V:5] c2d2 BdGB | 
[V:6] c2d2 BdGB | 
[V:7] F,E,F,D, G,2G,,2 | 
[V:1] c2 z2z4 | 
[V:2] z8 | 
[V:3] E2 z2z4 | 
[V:4] z2 C,2 C,2 C,2 | 
[V:5] c2 z2z4 | 
[V:6] c2 z2z4 | 
[V:7] C,2C,C, C,2C,2 | 
[V:1] z2 B2 B2 !breath!B2 | 
[V:2] z2 G2 G2 G2 | 
[V:3] z2 D2 D2 D2 | 
[V:4] G,2 G, G, G,2 G,2 | 
[V:5] B2BB B2B2 | 
[V:6] B2BB B2B2 | 
[V:7] G,2G,G, G,2G,2 | 
[V:1] A2 A !breath!A A2 A2 | 
[V:2] F2 F F F2 F2 | 
[V:3] D2 D D D2 D2 | 
[V:4] D,2 !breath!D,2 D,2 D,2 | 
[V:5] d2dd d2d2 | 
[V:6] d2dd d2d2 | 
[V:7] D,2D,D, D,2D,2 | 
[V:1] c2 !breath!c2 c2 c2 | 
[V:2] E2 A2 G2 A2 | 
[V:3] C2 !breath!E2 E2 D2 | 
[V:4] A,2 !breath!A,2 E,2 F,2 | 
[V:5] cdef gafe | 
[V:6] cdef gafe | 
[V:7] A,2A,2E,2F,2 | 
[V:1] B2 c!breath!d2< B2 B | 
[V:2] G2 G2 G2 G2 | 
[V:3] D2 E!breath!F2< D2 D | 
[V:4] G,2 !breath!C2 G,2 G,2 | 
[V:5] dgeg dgfg | 
[V:6] dgeg dgfg | 
[V:7] G,2E,2 G,2G,,2 | 
[V:1] !breath!c2 e e d2 c c | 
[V:2] !breath!G2 G G ^G2 A A | 
[V:3] !breath!C2 C C D2 E !breath!E | 
[V:4] C,2 C C B,2 A, A, | 
[V:5] e2 z2 z2 e2 | 
[V:6] e2 z2 z2 e2 | 
[V:7] C,2C2B,2A,2 | 
[V:1] B2 B2 B2 c2 | 
[V:2] E2 ^F2 G2 A2 | 
[V:3] E2 E2 E2 C2 | 
[V:4] ^G,2 E,2 E,2 E,2 | 
[V:5] e2E2 e2A2 | 
[V:6] e2E2 e2A2 | 
[V:7] ^G,2 E,2 E,2E,2 | 
[V:1] B2 c c e2 A2 | 
[V:2] ^G2 A2z4 | 
[V:3] E2 E2z4 | 
[V:4] E,2 A,,2z4 | 
[V:5] e2E2 e2A2 | 
[V:6] e2E2 e2A2 | 
[V:7] E,2A,,2z4 | 
[V:1] B2 c2B4 | 
[V:2] ^G2 A2G4 | 
[V:3] E2 E2E4 | 
[V:4] E,2 A,2E,4 | 
[V:5] edcd2< B2A | 
[V:6] edcd2< B2A | 
[V:7] E,2A,2E,2E,,2 | 
[V:1] !breath!A4c c !breath!c c | 
[V:2] !breath!A4A A A A | 
[V:3] !breath!E4A, A, A, A, | 
[V:4] !breath!A,,4F, F, F, F, | 
[V:5] A4accc | 
[V:6] A4accc | 
[V:7] A,,4F,4 | 
[V:1] c2 !breath!c2 d2 e2 | 
[V:2] G2 !breath!A2 F2 E2 | 
[V:3] C2 !breath!C2 B,2 C2 | 
[V:4] E,2 !breath!F,2 D,2 C,2 | 
[V:5] gccc fdec | 
[V:6] gccc fdec | 
[V:7] E,2F,2E,2D,2 | 
[V:1] !breath!d2 d d c2 c !breath!c | 
[V:2] !breath!G2 G G G2 A A | 
[V:3] !breath!B,2 B, B, E2 E E | 
[V:4] !breath!G,2 G, G, E,2 A, !breath!A, | 
[V:5] dGGG c2c2 | 
[V:6] dGGG c2c2 | 
[V:7] G,2G,2E,2A,2 | 
[V:1] c2 B c2< A2 A | 
[V:2] A2 G A2< ^F2 F | 
[V:3] D2 D D D2 C2 | 
[V:4] ^F,2 G, G, D,2 D,2 | 
[V:5] cdBc Adcd | 
[V:6] cdBc Adcd | 
[V:7] ^F,2G,2 D,2D,,2 | 
[V:1] !breath!G2 B2 B2 A G | 
[V:2] G2 z2z4 | 
[V:3] D2 z2z4 | 
[V:4] G,,2z4z2 | 
[V:5] B2G2 gbbb | 
[V:6] B2G2 gbbb | 
[V:7] G,,4z2 G,2 | 
[V:1] A2 A2 G2 G2 | 
[V:2] z8 | 
[V:3] z8 | 
[V:4] z32 | 
[V:5] addd dggg | 
[V:6] addd dggg | 
[V:7] ^F,4z2 E,2 | 
[V:1] ^F2 D Dz4 | 
[V:2] z2 ^F2 D2 G2 | 
[V:3] z4D2 E2 | 
[V:4]  | 
[V:5] ^fddd dde^f | 
[V:6] ^fddd dde^f | 
[V:7] D,4z2 C,2 | 
[V:1] z32 | 
[V:2] G2 G2 G2 G2 | 
[V:3] D2 D D D2 D D | 
[V:4]  | 
[V:5] gGGG Gggg | 
[V:6] gGGG Gggg | 
[V:7] B,,2G,,2 z2 G,2 | 
[V:1]  | 
[V:2] G2 G2 !breath!^F2 F2 | 
[V:3] D8 | 
[V:4]  | 
[V:5] gbag ^fad^f | 
[V:6] gbag ^fadf | 
[V:7] D,2C,2D,2D,,2 | 
[V:1]  | 
[V:2] G2 G2z4 | 
[V:3] B,2 z2z4 | 
[V:4] G,2 G,2 E,2 A,2 | 
[V:5] gggg gccc | 
[V:6] gggg gccc | 
[V:7] G,,2G,2 E,2A,2 | 
[V:1]  | 
[V:2] z8 | 
[V:3] z8 | 
[V:4] F,2 C, C, G,2 !breath!G,,2 | 
[V:5] cBcd BdGB | 
[V:6] cBcd BdGB | 
[V:7] F,2C,2 G,2G,,2 | 
[V:1] e2 e !breath!e d2 !breath!c2 | 
[V:2] G2 G G G2 G2 | 
[V:3] C2 C C B,2 C2 | 
[V:4] C,2 C C G,2 E,2 | 
[V:5] cdef gggg | 
[V:6] cdef gggg | 
[V:7] C,2C2G,2E,2 | 
[V:1] c2 c !breath!c c2 c c | 
[V:2] A2 G G A2 G G | 
[V:3] A,2 C !breath!C A,2 C C | 
[V:4] F,2 E, E, F,2 E, E, | 
[V:5] acgc acgc | 
[V:6] acgc acgc | 
[V:7] F,2E,2F,2E,2 | 
[V:1] c2 c2 f2 e e | 
[V:2] A2 G2 D2 G G | 
[V:3] A,2 C2 B,2 C C | 
[V:4] F,2 E,2 D,2 C, C, | 
[V:5] afge fdec | 
[V:6] afge fdec | 
[V:7] F,2E,2D,2C,2 | 
[V:1] d2 d2 z2 c c | 
[V:2] G2 G2 z2 G G | 
[V:3] B,2 B,2 z2 E E | 
[V:4] G,2 G,2 z2 C C | 
[V:5] dGGG Geee | 
[V:6] dGGG Geee | 
[V:7] G,2G,,2 z2 C2 | 
[V:1] B2 !breath!c2 c2 c2 | 
[V:2] G2 G2 A2 G2 | 
[V:3] D2 E2 C2 C2 | 
[V:4] G,2 E,2 F,2 E,2 | 
[V:5] dggg afge | 
[V:6] dggg afge | 
[V:7] G,2E,2F,2E,2 | 
[V:1] f f !breath!e e !breath!d2 d2 | 
[V:2] D D G G G2 G2 | 
[V:3] B, B, !breath!C C B,2 B,2 | 
[V:4] D, D, C, C, G,2 G,,2 | 
[V:5] fdec dG gf | 
[V:6] fdec dGgf | 
[V:7] D,2C,2 G,2G,,2 | 
[V:1] e2 !breath!e2 e2 d2 | 
[V:2] G2 G2 G2 G2 | 
[V:3] C2 C2 C2 B,2 | 
[V:4] C,2 C,2 E,2 G,2 | 
[V:5] e4c2G2 | 
[V:6] e4c2A2 | 
[V:7] C,4z4 | 
[V:1] e2 d d e2 d2 | 
[V:2] G2 G G G2 G2 | 
[V:3] C2 B, B, C2 B,2 | 
[V:4] C2 G, G, E,2 G,2 | 
[V:5] E2G2 c2G2 | 
[V:6] E2G2 c2G2 | 
[V:7] C2G,2z4 | 
[V:1] e2 d2d4 | 
[V:2] G2 A2G4 | 
[V:3] C2 C2B,4 | 
[V:4] C2 F,2G,4 | 
[V:5] E2A2D2G2 | 
[V:6] E2A2D2F2 | 
[V:7] C2F,2G,2G,,2 | 
[V:1] c4z4 |]  
[V:2] G4z4 |]  
[V:3] C4z4 |]  
[V:4] C,4z4 |]  
[V:5] E4z4 |]  
[V:6] E4z4 |]  
[V:7] C,4z4 |]  

